docs/.gitbook/assets/icon-image-16@dark.svg

<svg width="32" height="32" viewBox="0 0 16 16" fill="none" xmlns="http://www.w3.org/2000/svg">
<rect x="0" y="0" width="16" height="16" fill="#181c1f"/>
<path fill-rule="evenodd" clip-rule="evenodd" d="M3.75 2.5C3.05964 2.5 2.5 3.05964 2.5 3.75V10.183L3.48095 9.00918C4.21293 8.1333 5.55075 8.15754 6.25212 9.05674C6.63368 9.54593 7.36702 9.56488 7.77334 9.09604L9.92146 6.61742C10.5394 5.90442 11.5982 5.79167 12.3491 6.36924L13.5 7.25458V3.75C13.5 3.05964 12.9404 2.5 12.25 2.5H3.75ZM13.5 9.14704L11.4345 7.55817C11.3185 7.46895 11.1569 7.48221 11.055 7.59981L8.90688 10.0784C7.88187 11.2612 6.03192 11.2134 5.06936 9.97928C4.95474 9.83233 4.75003 9.82976 4.63193 9.97107L2.52375 12.4937C2.63712 13.0674 3.14304 13.5 3.75 13.5H12.25C12.9404 13.5 13.5 12.9404 13.5 12.25V9.14704ZM1 3.75C1 2.23122 2.23122 1 3.75 1H12.25C13.7688 1 15 2.23122 15 3.75V8.77774V12.25C15 13.7688 13.7688 15 12.25 15H3.75C2.23122 15 1 13.7688 1 12.25V3.75Z" fill="#fff"/>
<path fill-rule="evenodd" clip-rule="evenodd" d="M3.75 4.75C3.75 4.19772 4.19772 3.75 4.75 3.75C5.30228 3.75 5.75 4.19772 5.75 4.75C5.75 5.30228 5.30228 5.75 4.75 5.75C4.19772 5.75 3.75 5.30228 3.75 4.75Z" fill="#fff"/>
</svg>

<svg xmlns="http://www.w3.org/2000/svg" width="32" height="32" fill="none" viewBox="0 0 16 16"><path fill="#181c1f" d="M0 0h16v16H0z"/><path fill="#fff" fill-rule="evenodd" d="M3.75 2.5c-.69 0-1.25.56-1.25 1.25v6.433l.981-1.174a1.775 1.775 0 0 1 2.771.048.985.985 0 0 0 1.521.039l2.148-2.479a1.773 1.773 0 0 1 2.428-.248l1.151.886V3.75c0-.69-.56-1.25-1.25-1.25zm9.75 6.647-2.065-1.589a.273.273 0 0 0-.38.042l-2.148 2.478a2.485 2.485 0 0 1-3.838-.099.275.275 0 0 0-.437-.008l-2.108 2.523A1.25 1.25 0 0 0 3.75 13.5h8.5c.69 0 1.25-.56 1.25-1.25zM1 3.75A2.75 2.75 0 0 1 3.75 1h8.5A2.75 2.75 0 0 1 15 3.75v8.5A2.75 2.75 0 0 1 12.25 15h-8.5A2.75 2.75 0 0 1 1 12.25z" clip-rule="evenodd"/><path fill="#fff" fill-rule="evenodd" d="M3.75 4.75a1 1 0 1 1 2 0 1 1 0 0 1-2 0" clip-rule="evenodd"/></svg>
